src/img/icons/icon-camera.svg

<?xml version="1.0" encoding="UTF-8"?>
<svg width="24px" height="24px" viewBox="0 0 24 24" version="1.1" xmlns="http://www.w3.org/2000/svg" xmlns:xlink="http://www.w3.org/1999/xlink">
    <!-- Generator: sketchtool 53.2 (72643) - https://sketchapp.com -->
    <title>A97B4E76-E7BB-4CB6-89A5-3F9049CDDBED</title>
    <desc>Created with sketchtool.</desc>
    <g id="Symbols" stroke="none" stroke-width="1" fill="none" fill-rule="evenodd" opacity="0.8">
        <g id="icon/ico-camera-white" fill="#FFFFFF" fill-rule="nonzero">
            <path d="M12,16.2 C10.2326888,16.2 8.8,14.7673112 8.8,13 C8.8,11.2326888 10.2326888,9.8 12,9.8 C13.7673112,9.8 15.2,11.2326888 15.2,13 C15.2,14.7673112 13.7673112,16.2 12,16.2 Z M9,3 L15,3 L16.83,5 L20,5 C21.1,5 22,5.9 22,7 L22,19 C22,20.1 21.1,21 20,21 L4,21 C2.9,21 2,20.1 2,19 L2,7 C2,5.9 2.9,5 4,5 L7.17,5 L9,3 Z M12,18 C14.76,18 17,15.76 17,13 C17,10.24 14.76,8 12,8 C9.24,8 7,10.24 7,13 C7,15.76 9.24,18 12,18 Z" id="Combined-Shape"></path>
        </g>
    </g>
</svg>

<svg width="24" height="24" xmlns="http://www.w3.org/2000/svg"><path d="M12 16.2a3.2 3.2 0 1 1 0-6.4 3.2 3.2 0 0 1 0 6.4zM9 3h6l1.83 2H20c1.1 0 2 .9 2 2v12c0 1.1-.9 2-2 2H4c-1.1 0-2-.9-2-2V7c0-1.1.9-2 2-2h3.17L9 3zm3 15c2.76 0 5-2.24 5-5s-2.24-5-5-5-5 2.24-5 5 2.24 5 5 5z" fill="#FFF" fill-rule="nonzero" opacity=".8"/></svg>
